X: 2
T: The Luck Penny
R: jig
M: 6/8
L: 1/8
K: Gmaj
(B/c/)|dBG GFG|dBG GAB | cA=F FEF | cA=F FBc|dBG GFG|gag fdB |def gdB |cAF G2 B/c/ |dBG GFG |DGB DGB|cA=F FEF |C=FF A,FF |dBG GFG |gag fdB |def gdB |cAF G2||


Tune 1334	Setting 1334

